assets/SVG/sign.svg

<svg fill="none" height="217" viewBox="0 0 551 217" width="551" xmlns="http://www.w3.org/2000/svg"><g stroke="#fff" stroke-linecap="round" stroke-miterlimit="10" stroke-width="2"><path d="m78.9195 33.225s-65.6169 50.4771-71.1638 47.4086c-5.54688-3.0684 22.3662-29.924 24.1119-24.3863.8596 2.768-1.8829 29.3751-5.2616 56.3667-.218 1.742-.4377 3.51-.6557 5.251-3.2103 25.194-6.7849 49.434-8.2679 53.488-3.1905 8.706-9.60826 10.927-9.60826 10.927s-6.97449-5.686 4.32346-10.202c11.2979-4.515 16.0531-5.274 16.0531-5.274"/><path d="m26.7689 118.37s-1.0671-.361 11.7318-6.722 18.1995-8.062 18.1995-8.062"/><path d="m67.2947 100.089s9.6387-3.106 13.8235 5.035c.5197 1.017.7245 2.387.6756 3.98-.4201 11.117-13.5509 33.441-16.9422 29.101-3.8836-4.957-10.1128-22.271-.4486-25.775 9.6642-3.503 19.1133 4.231 21.3938 9.723 2.2804 5.492 7.0679 4.23 15.3212-18.327 8.251-22.5306 21.423-56.2887 21.423-56.2887s-19.47 74.7657-15.588 79.7487c3.884 4.957 20.95-40.6003 29.074-69.4424 8.15-28.8405-7.154 46.0594-6.399 58.7674.754 12.709 8.399 7.933 20.048-2.066 11.65-9.998 11.65-9.998 11.65-9.998"/><path d="m179.954 51.2176s-8.819 104.8114 1.051 98.1034c9.869-6.708 18.215-87.9586 22.265-85.5978 4.05 2.3607-1.166 83.7318 5.082 84.1588s32.803-94.8427 32.803-94.8427l.637 55.6017s4.496-29.0748 11.737-27.5468c7.243 1.5015 2.617 16.4184 5.642 18.1815 3.025 1.7633 15.99-20.4653 19.049-19.232 3.058 1.2333.966 1.0992 3.058 1.2333s11.437-14.9856 12.33-12.3219c.865 2.6885-6.303 32.7889 3.833 30.2203 10.136-2.5685 22.379-22.2367 22.814-29.0176.434-6.781-5.893 18.506-4.062 22.2937 1.858 3.7894 20.342-22.8194 21.146-27.4755.83-4.6544 8.542-2.5909 13.29-2.8185 4.721-.2293-.378 30.3759.781 28.881s.408-14.6553 8.615-19.9008c8.207-5.2454 8.207-5.2454 8.207-5.2454" stroke-linejoin="round"/><path d="m303.035 77.4584 23.823-3.7126" stroke-linejoin="round"/><path d="m393.531 61.556s-.364-16.7261 13.253-16.7577c6.623-.0276 12.725 3.502 14.369 10.2034 1.749 7.1602-1.762 13.3982-6.121 18.7573-5.022 6.1677-9.892 12.4516-14.61 18.8515-.262.3556-1.196 1.6522-.666 2.0851.379.3169 1.991-.7766 2.376-.9648 1.762-.9509 3.403-2.0692 5.215-2.9637 2.691-1.317 5.424-2.4716 8.229-3.5152 5.502-2.0411 11.235-3.5354 17.037-4.4401" stroke-linejoin="round"/><path d="m451.446 42.8742c-1.531.2476-2.977.8198-4.159 1.8345-1.855 1.5567-2.804 3.9162-3.407 6.2713-1.166 4.4999-1.211 9.3642-1.533 13.9714-.367 4.8969-.551 9.8321.122 14.6892.293 2.0668.741 4.1967 2.018 5.8477 1.35 1.7621 3.462 2.8284 5.639 3.2871 5.772 1.2211 12.458-.2121 14.759-6.2351.924-2.3877 1.117-4.9818 1.308-7.5495.411-5.5855.822-11.1711 1.232-16.7302.223-3.0709.432-6.3289-.959-9.1043-1.13-2.28-3.256-3.9589-5.613-4.9345-2.849-1.1932-6.315-1.8676-9.407-1.3476z" stroke-linejoin="round"/></g><path d="m447.952 45.4142c-.232-.5014-.826-.7201-1.327-.4886-.501.2316-.72.8258-.489 1.3272zm15.124 37.5173c.232.5014.826.7201 1.327.4885.502-.2315.72-.8257.489-1.3271zm-16.94-36.6787 16.94 36.6787 1.816-.8386-16.94-36.6787z" fill="#fff"/><path d="m480.985 44.5812s3.521-16.3441 16.776-13.2337c6.472 1.5052 11.559 6.3528 11.622 13.2454.06 7.3711-4.825 12.6433-10.306 16.8401-6.319 4.8345-12.516 9.8364-18.588 14.9528-.336.271-1.548 1.337-1.132 1.8956.294.3912 2.119-.2897 2.525-.3967 1.921-.5152 3.803-1.2457 5.745-1.6797 2.913-.6378 5.87-1.1398 8.818-1.5093 5.841-.6895 11.728-.8441 17.602-.3878" stroke="#fff" stroke-linecap="round" stroke-linejoin="round" stroke-miterlimit="10" stroke-width="2"/><path d="m533.424 33.7663c-1.532.2476-2.978.8198-4.159 1.8345-1.855 1.5567-2.804 3.9162-3.407 6.2713-1.166 4.4999-1.212 9.3642-1.534 13.9714-.367 4.8968-.55 9.8321.122 14.6892.293 2.0668.742 4.1966 2.019 5.8477 1.349 1.7621 3.461 2.8284 5.639 3.2871 5.771 1.2211 12.458-.2121 14.758-6.2351.925-2.3877 1.117-4.9818 1.309-7.5495.411-5.5855.822-11.1711 1.231-16.7302.224-3.0709.433-6.3289-.958-9.1043-1.13-2.28-3.256-3.9589-5.614-4.9345-2.875-1.1949-6.341-1.8693-9.406-1.3476z" stroke="#fff" stroke-linecap="round" stroke-linejoin="round" stroke-miterlimit="10" stroke-width="2"/><path d="m530.18 35.8542c-.231-.5014-.826-.7202-1.327-.4886-.501.2315-.72.8257-.489 1.3271zm15.124 37.5172c.232.5014.826.7202 1.327.4886.502-.2316.72-.8258.489-1.3272zm-16.94-36.6787 16.94 36.6787 1.816-.8386-16.94-36.6786z" fill="#fff"/></svg>

<svg width="551" height="217" viewBox="0 0 551 217" fill="none" xmlns="http://www.w3.org/2000/svg">
<path d="M78.9195 33.225C78.9195 33.225 13.3026 83.7021 7.7557 80.6336C2.20882 77.5652 30.1219 50.7096 31.8676 56.2473C32.7272 59.0153 29.9847 85.6224 26.606 112.614C26.388 114.356 26.1683 116.124 25.9503 117.865C22.74 143.059 19.1654 167.299 17.6824 171.353C14.4919 180.059 8.07414 182.28 8.07414 182.28C8.07414 182.28 1.09965 176.594 12.3976 172.078C23.6955 167.563 28.4507 166.804 28.4507 166.804" stroke="white" stroke-width="2" stroke-miterlimit="10" stroke-linecap="round"/>
<path d="M26.7689 118.37C26.7689 118.37 25.7018 118.009 38.5007 111.648C51.2996 105.287 56.7002 103.586 56.7002 103.586" stroke="white" stroke-width="2" stroke-miterlimit="10" stroke-linecap="round"/>
<path d="M67.2947 100.089C67.2947 100.089 76.9334 96.983 81.1182 105.124C81.6379 106.141 81.8427 107.511 81.7938 109.104C81.3737 120.221 68.2429 142.545 64.8516 138.205C60.968 133.248 54.7388 115.934 64.403 112.43C74.0672 108.927 83.5163 116.661 85.7968 122.153C88.0772 127.645 92.8647 126.383 101.118 103.826C109.369 81.2954 122.541 47.5373 122.541 47.5373C122.541 47.5373 103.071 122.303 106.953 127.286C110.837 132.243 127.903 86.6857 136.027 57.8436C144.177 29.0031 128.873 103.903 129.628 116.611C130.382 129.32 138.027 124.544 149.676 114.545C161.326 104.547 161.326 104.547 161.326 104.547" stroke="white" stroke-width="2" stroke-miterlimit="10" stroke-linecap="round"/>
<path d="M179.954 51.2176C179.954 51.2176 171.135 156.029 181.005 149.321C190.874 142.613 199.22 61.3624 203.27 63.7232C207.32 66.0839 202.104 147.455 208.352 147.882C214.6 148.309 241.155 53.0393 241.155 53.0393L241.792 108.641C241.792 108.641 246.288 79.5662 253.529 81.0942C260.772 82.5957 256.146 97.5126 259.171 99.2757C262.196 101.039 275.161 78.8104 278.22 80.0437C281.278 81.277 279.186 81.1429 281.278 81.277C283.37 81.4111 292.715 66.2914 293.608 68.9551C294.473 71.6436 287.305 101.744 297.441 99.1754C307.577 96.6069 319.82 76.9387 320.255 70.1578C320.689 63.3768 314.362 88.6638 316.193 92.4515C318.051 96.2409 336.535 69.6321 337.339 64.976C338.169 60.3216 345.881 62.3851 350.629 62.1575C355.35 61.9282 350.251 92.5334 351.41 91.0385C352.569 89.5436 351.818 76.3832 360.025 71.1377C368.232 65.8923 368.232 65.8923 368.232 65.8923" stroke="white" stroke-width="2" stroke-miterlimit="10" stroke-linecap="round" stroke-linejoin="round"/>
<path d="M303.035 77.4584L326.858 73.7458" stroke="white" stroke-width="2" stroke-miterlimit="10" stroke-linecap="round" stroke-linejoin="round"/>
<path d="M393.531 61.556C393.531 61.556 393.167 44.8299 406.784 44.7983C413.407 44.7707 419.509 48.3003 421.153 55.0017C422.902 62.1619 419.391 68.3999 415.032 73.759C410.01 79.9267 405.14 86.2106 400.422 92.6105C400.16 92.9661 399.226 94.2627 399.756 94.6956C400.135 95.0125 401.747 93.919 402.132 93.7308C403.894 92.7799 405.535 91.6616 407.347 90.7671C410.038 89.4501 412.771 88.2955 415.576 87.2519C421.078 85.2108 426.811 83.7165 432.613 82.8118" stroke="white" stroke-width="2" stroke-miterlimit="10" stroke-linecap="round" stroke-linejoin="round"/>
<path d="M451.446 42.8742C449.915 43.1218 448.469 43.694 447.287 44.7087C445.432 46.2654 444.483 48.6249 443.88 50.98C442.714 55.4799 442.669 60.3442 442.347 64.9514C441.98 69.8483 441.796 74.7835 442.469 79.6406C442.762 81.7074 443.21 83.8373 444.487 85.4883C445.837 87.2504 447.949 88.3167 450.126 88.7754C455.898 89.9965 462.584 88.5633 464.885 82.5403C465.809 80.1526 466.002 77.5585 466.193 74.9908C466.604 69.4053 467.015 63.8197 467.425 58.2606C467.648 55.1897 467.857 51.9317 466.466 49.1563C465.336 46.8763 463.21 45.1974 460.853 44.2218C458.004 43.0286 454.538 42.3542 451.446 42.8742Z" stroke="white" stroke-width="2" stroke-miterlimit="10" stroke-linecap="round" stroke-linejoin="round"/>
<path d="M447.952 45.4142C447.72 44.9128 447.126 44.6941 446.625 44.9256C446.124 45.1572 445.905 45.7514 446.136 46.2528L447.952 45.4142ZM463.076 82.9315C463.308 83.4329 463.902 83.6516 464.403 83.42C464.905 83.1885 465.123 82.5943 464.892 82.0929L463.076 82.9315ZM446.136 46.2528L463.076 82.9315L464.892 82.0929L447.952 45.4142L446.136 46.2528Z" fill="white"/>
<path d="M480.985 44.5812C480.985 44.5812 484.506 28.2371 497.761 31.3475C504.233 32.8527 509.32 37.7003 509.383 44.5929C509.443 51.964 504.558 57.2362 499.077 61.433C492.758 66.2675 486.561 71.2694 480.489 76.3858C480.153 76.6568 478.941 77.7228 479.357 78.2814C479.651 78.6726 481.476 77.9917 481.882 77.8847C483.803 77.3695 485.685 76.639 487.627 76.205C490.54 75.5672 493.497 75.0652 496.445 74.6957C502.286 74.0062 508.173 73.8516 514.047 74.3079" stroke="white" stroke-width="2" stroke-miterlimit="10" stroke-linecap="round" stroke-linejoin="round"/>
<path d="M533.424 33.7663C531.892 34.0139 530.446 34.5861 529.265 35.6008C527.41 37.1575 526.461 39.517 525.858 41.8721C524.692 46.372 524.646 51.2363 524.324 55.8435C523.957 60.7403 523.774 65.6756 524.446 70.5327C524.739 72.5995 525.188 74.7293 526.465 76.3804C527.814 78.1425 529.926 79.2088 532.104 79.6675C537.875 80.8886 544.562 79.4554 546.862 73.4324C547.787 71.0447 547.979 68.4506 548.171 65.8829C548.582 60.2974 548.993 54.7118 549.402 49.1527C549.626 46.0818 549.835 42.8238 548.444 40.0484C547.314 37.7684 545.188 36.0895 542.83 35.1139C539.955 33.919 536.489 33.2446 533.424 33.7663Z" stroke="white" stroke-width="2" stroke-miterlimit="10" stroke-linecap="round" stroke-linejoin="round"/>
<path d="M530.18 35.8542C529.949 35.3528 529.354 35.134 528.853 35.3656C528.352 35.5971 528.133 36.1913 528.364 36.6927L530.18 35.8542ZM545.304 73.3714C545.536 73.8728 546.13 74.0916 546.631 73.86C547.133 73.6284 547.351 73.0342 547.12 72.5328L545.304 73.3714ZM528.364 36.6927L545.304 73.3714L547.12 72.5328L530.18 35.8542L528.364 36.6927Z" fill="white"/>
</svg>
